X: 3966
T: Blackhall Rocks
R: waltz
M: 3/4
K: Gmajor
e2|:dB-B4|B4 A2|B4 A2|Bd-d4|dB-B4|B4 G2|A4 G2|Ae-e4|
dB-B4|A4 G2|g4 a2|b4 a2|ge-e4|d4 B2|A4 G2|A4 e2|
dB-B4|g4 d2|e4 d2|gd-d4|B4 B2|g4 d2|e4 d2|e g3 e2|
dB-B4|A4 G2|g4 a2|b4 a2|ge-e4|d4 B2|A4 G2|1 A4 e2:|2 A4 e2|dB-B4|A4 G2|g4 a2|b4 a2|ge-e4|d4 B2|A6|-A4 G2|G6-|G6-|G3||

